X: 1
T: Lac Amora
M: 4/4
L: 1/8
R: reel
K: Dmin
|:EFED ~A2 Bc|BAdBAGFE|DEDC ~A2 Bc|GFED^C4:|
.d2eff eda|agccfed^c|~d2effeda|1agedg3 ^c :|2fed^cd4||
aaf2gge2|fedfe3 ^c|df eg (3ege fg|1afef e3 z:|2fe d^c-dAFE||
